X: 15006
T: Gentleman Thief, The
R: jig
M: 6/8
K: Amajor
e|:aga bag|a2a e2e|aga bag|a2a e2e|
f2f f2a|e2e e2c|e2e e2c|f2fg2e:|
M:9/8
|:c2c c2B A2B|ccc c2e f2e|
c2c c2B A2B|cff f2e f2e:|

